X:1
T:Title
%%score ( 1 2 3 ) ( 4 5 6 )
L:1/8
Q:1/4=120
M:none
K:F
V:1 treble nm="Voice"
V:2 treble 
V:3 treble 
V:4 treble nm="Voice"
V:5 treble 
V:6 treble 
V:1
 x8 | x8 | x8 | x8 |!mf! [EG]4 | c4 | d2 c/.d/ e4 x | c2 [G=B]d x4 | c4 x4 |!mf!!f! G3 F2 | %10
 c2 .d/c/ x | B2 A2 x | G2!p! [FA]B | c2 [FA]2 | cBA G B | [FA]2 .[EG]2 [DF]2 | .c2 =B2 x | %17
!p! c3 c2 | d3 c2 d2 | ._e2 d2 | c2 =B2 | [^FA]/=B/A/.d/!>)!!>(! cB d x3 |!ped! c2!p!!ped! G2 | %23
 dcBA | B2 A2 B2 | c2 d/c/B/A/ | [DG]2 e4 c/B/A/G/ |!p! F2 [^CE]2 | .FG!p![FA]B x4 | x8 | %30
!p! F2 !arpeggio!AG g2 B3 A2 e8 =A2 | x4 | x8 | %33
V:2
 x8 | x8 | x8 | x8 | x4 | E4- | G4- G2 F2 | _E2 G2 x4 | G4 x4 | D4 x | F4- | F4 x | E2 F2 | %13
 G2 F2- | F4- x | F2 x2 D2 | E2 (G2 x | G4) x | x7 | A4 | x4 | ^F2 G2- x4 | G2 D2 | G2 F2- | %24
 F4 x2 | x4 | x6 C2 | .[DF]2 ^C2 | x2 F2 x4 | x8 | x21 | x4 | x8 | %33
V:3
 x8 | x8 | x8 | x8 | x4 | x4 | x4 e2 .d2 | x8 | x8 | x5 | x4 | x5 | x4 | x4 | x5 | x6 | x5 | x5 | %18
 x7 | x4 | x4 | x8 | x4 | x4 | x6 | x4 | x8 | x4 | x8 | x8 | x21 | x4 | x8 | %33
V:4
 B2 AB x4 | .c4 x4 | BA GA B x3 |!p! G4 x4 | C4 | G,4 | [A,C]4 x4 | x8 | G,4 C4- | C2 D2 x | %10
 [_E,G,]4 | B,3 A,2 | A,,4 | D2 C2 | C2- CD x | C4- x2 | C2 x D2 |!p! F,2 C,D, x | C2 D2 x3 | C4 | %20
 [G,=B,]4 | .G,8 | D4- | D4 | G,2 B,2 x2 | C4 | B,4 x4 | C2 F,2 | C2 x4 F,2 | A,4- x4 | %30
 A,C-C!ped!D x17 | C,4 | x8 | %33
V:5
 x8 | x8 | x8 | x8 | C,4 | C,4 | A,4 x4 | x8 | B,4 C,4- | C,2 G,2 x | _E,4 | G,3 x2 | x4 | %13
 B,,2 F,2 | C,2 F,2 x | E,2 F,2 x2 | A,,2 x B,,2 | x2 CA, x | C,2 G,2 x3 | E,4 | G,4 | x8 | G,4 | %23
 D,2 G,2 | E,2 G,2 x2 | E,2 F,2 | D,4 x4 | A,,2 B,,2 | C,2 x4 A,,2 | D,2 A,,2 x4 | D,2 .F,B,, x17 | %31
 x4 | x8 | %33
V:6
 x8 | x8 | x8 | x8 | x4 | x4 | x8 | x8 | x8 | x5 | x4 | x5 | x4 | x4 | x3 D,2 | x6 | x5 | x5 | x7 | %19
 x4 | x4 | x8 | x4 | x4 | x6 | x4 | x8 | x4 | x8 | x8 | x C,2 x18 | x4 | x8 | %33

